source/img/sprite/level.svg

<svg width="12" height="12" viewBox="0 0 12 12" fill="none" xmlns="http://www.w3.org/2000/svg">
  <path d="M10.909 11.4545H8.94536V0.54541H10.909V11.4545Z" stroke="white" stroke-miterlimit="16"
    stroke-linecap="round" />
  <path d="M6.98173 11.4545V3.52062H5.01809L5.0181 11.4545H6.98173Z" stroke="white"
    stroke-miterlimit="16" stroke-linecap="round" />
  <path d="M3.05446 11.4545V6.49582H1.09082V11.4545H3.05446Z" stroke="white" stroke-miterlimit="16"
    stroke-linecap="round" />
</svg>

<svg viewBox="0 0 12 12" fill="none" xmlns="http://www.w3.org/2000/svg"><g clip-path="url(#a)" stroke="#fff" stroke-miterlimit="16" stroke-linecap="round"><path d="M10.9 11.45h-1.95v-10.9h1.96v10.9Zm-3.92 0v-7.93h-1.96v7.93h1.96Zm-3.93 0v-4.95h-1.96v4.95h1.96Z"/></g><defs><clipPath id="a"><path fill="#fff" d="M0 0h12v12h-12z"/></clipPath></defs></svg>
